X: 4
T: Kneebuckle, The
M: 6/8
L: 1/8
R: jig
K: Ador / Amix
|: eAA eAA | e>ee edB | eAA e2 e | edB A3 |
eAA eAA | e>ee edB | def gfe | dBG A3 :|
|: aea gdg | fdf e2 a | aea gdg | fdf e2 a |
aea gdg | fdf e2 A | def gfe | dBG A3 :|
